X:1
T:Julens Vuggesang
T:Julens Vuggesang
T:Den unge Moser ved Vuggen (Adolf Langsted) 
T:Edvard Grieg
T:Public Domain - https://imslp.org/wiki/Christmas_Lullaby%2C_EG_155_(Grieg%2C_Edvard) 
C:Edvard Grieg
Z:Public Domain - https://imslp.org/wiki/Christmas_Lullaby%2C_EG_155_(Grieg%2C_Edvard)
%%score 1 { ( 2 5 ) | ( 3 4 ) }
L:1/8
Q:1/4=52
M:2/2
K:D
V:1 treble nm="Voce"
V:2 treble nm="Piano"
V:5 treble 
V:3 bass 
V:4 bass 
V:1
"^Lento" z8 |:S z4 z2 A2 | d2 d2 c2 c2 | =c2 c2 B2 B2 | _B2!<(! B2 A2 A2!<)! | =B2 B2 G2 B2 | %6
w: |1. Du|har saa blød en|Vug\- ge\- seng, mit|Barn! som no\- gen|Prin\- se\- dreng, men|
w: |2. Din|Vug- ge er saa|bred af Fang, og|lu- net trindt af|Sil- ke- hang; thi|
w: |3. Din|Vug- ge har en|Gang saa let og|Mo- ders Fod blev|al- drig træt; thi|
w: |4. Den|stod paa Jord for-|u\- den Gang, for-|u- den Dun og|Sil- ke- hang; thi|
 e2 c2 A2 F2 |!>(! d2 B2 G2 E2!>)! | c2 c2 e2 d2 |!<(! (D8!<)! |!>(! G6) F2!>)! | A8 :| z8!D.S.! | %13
w: der\- for min\- der|jeg dig om, din|Frel\- sers var et|Kryb-|* be\-|rum.||
w: vil jeg, Du skal|tæn- ke paa, din|Frel\- sers var kun|redt|_ med|Straa.||
w: vil jeg, Du skal|ag- te paa, din|Frel\- sers maat\- te|stil-|* le|staa.||
w: be- der jeg dig:|tag ham ind og|vug ham i dit|blø-|* de|Sind.||
 !fermata!z8 |] %14
w: |
w: |
w: |
w: |
V:2
!p! ([A,F]2 [DA]2 [A,F]2 [DA]2) |: ([A,F]2 [DA]2 [A,F]2 [DA]2) | ([DA]2 [Fd]2 [CA]2 [Fc]2) | %3
 ([=CA]2 [F=c]2 [B,F]2 [DB]2) | ([_B,F]2!<(! [D_B]2 [A,F]2 [DA]2)!<)! | %5
 ([=B,G]2 [D=B]2 [G,D]2 [B,G]2) | (B2 [Ge]2 A2 [Fd]2) |!>(! (A2 [Fd]2 G2 [Ec]2)!>)! | %8
 (G2 [Ec]4) z2 |[K:bass]!pp! ([D,_B,]2!<(! [G,D]2 [D,B,]2 [=F,D]2)!<)! | %10
!>(! ([D,_B,]2 [G,D]2 [D,B,]2 [G,D]2)!>)! |[K:treble] ([A,F]2 [DA]2 [A,F]2 [DA]2) :| %12
"_morendo" ([A,F]2 [DA]2 F2 [DA]2-) | !fermata![DFA]8 |] %14
V:3
!ped! A,,8!ped-up! |: A,,8 | A,,8 | A,,8 | A,,8 | A,,8 | A,,8 | G,,8 | [F,,,F,,]6 z2 | %9
 (G,,4 [_B,,,=F,,]4) | G,,8 | A,,8 :| A,,8 | !fermata![D,,,A,,,]8 |] %14
V:4
 (D,,4 A,,,4) |: (D,,4 A,,,4) | (D,,4 A,,,4) | (D,,4 A,,,4) | (D,,4 F,,4) | E,,8 | (A,,,4 D,,4) | %7
 (G,,,4 C,,4) | x8 | x8 | (E,,4 _E,,4) | (D,,4 A,,,4) :| (D,,4 A,,,4) | x8 |] %14
V:5
 x8 |: x8 | x8 | x8 | x8 | x8 | C4 C4 | B,4 B,4 | ^A,6 x2 |[K:bass] x8 | x8 |[K:treble] x8 :| %12
 x4 [A,-F]4 | A,8 |] %14

